packages/sources/assets/src/assets/giro-pay.svg

<svg width="58" height="40" viewBox="0 0 58 40" fill="none" xmlns="http://www.w3.org/2000/svg">
<rect x="0.5" y="0.5" width="57" height="39" rx="3.5" fill="white" stroke="#F3F3F3"/>
<path fill-rule="evenodd" clip-rule="evenodd" d="M7.8313 25.8497V14.4462C7.83338 13.4977 8.70125 12.7303 9.77393 12.7286H29.9861V27.5673H9.77393C8.70125 27.5655 7.83338 26.7979 7.8313 25.8497ZM48.4571 11.4462H9.77393C7.89983 11.4465 6.38175 12.7887 6.3811 14.4462V25.8497C6.38175 27.5067 7.89983 28.849 9.77393 28.8496H48.4571C50.331 28.849 51.8493 27.5067 51.8499 25.8497V14.4462C51.8493 12.7887 50.331 11.4465 48.4571 11.4462Z" fill="#0F3365"/>
<path fill-rule="evenodd" clip-rule="evenodd" d="M29.9861 12.7285H9.77393C8.70125 12.7302 7.83339 13.4977 7.8313 14.4461V25.8497C7.83339 26.7978 8.70125 27.5654 9.77393 27.5673H29.9861V12.7285Z" fill="#FFFFFE"/>
<path fill-rule="evenodd" clip-rule="evenodd" d="M43.6152 23.9843C43.9643 24.0512 44.3129 24.0846 44.6713 24.0846C46.2275 24.0846 46.5949 23.0252 47.0754 21.9337L48.8766 17.8895H47.1794L46.1703 20.7242H46.1515L45.0954 17.8895H43.2669L45.2554 22.3335C45.1336 22.717 44.8129 22.9339 44.3986 22.9339C44.1622 22.9339 43.9547 22.9093 43.7288 22.842L43.6152 23.9843Z" fill="#FFFFFE"/>
<path fill-rule="evenodd" clip-rule="evenodd" d="M42.853 22.2332C42.7777 21.8914 42.7584 21.5498 42.7584 21.2078V19.5903C42.7584 18.2646 41.6743 17.7896 40.4203 17.7896C39.694 17.7896 39.0624 17.8809 38.459 18.0981L38.487 19.1151C38.9589 18.8819 39.5055 18.79 40.0521 18.79C40.6652 18.79 41.1652 18.9484 41.1745 19.5406C40.9577 19.5069 40.6562 19.4816 40.3827 19.4816C39.4775 19.4816 37.8464 19.6406 37.8464 20.9661C37.8464 21.9086 38.7138 22.3338 39.685 22.3338C40.3827 22.3338 40.8541 22.0916 41.2405 21.5498H41.2589C41.2589 21.775 41.2878 22.0004 41.297 22.2332H42.853ZM39.4301 20.8579C39.4301 20.441 39.8826 20.2826 40.4578 20.2826C40.7126 20.2826 40.9577 20.2992 41.1745 20.3075C41.1745 20.8159 40.7694 21.3335 40.1277 21.3335C39.7319 21.3335 39.4301 21.1576 39.4301 20.8579Z" fill="#FFFFFE"/>
<path fill-rule="evenodd" clip-rule="evenodd" d="M31.597 23.9844H33.2938V21.6251H33.3128C33.6335 22.142 34.2747 22.3335 34.8686 22.3335C36.33 22.3335 37.1125 21.2663 37.1125 19.9822C37.1125 18.9319 36.3682 17.7896 35.0103 17.7896C34.2372 17.7896 33.5203 18.0647 33.181 18.6734H33.1621V17.8896H31.597V23.9844ZM35.3591 20.0157C35.3591 20.7079 34.9724 21.1829 34.3317 21.1829C33.7657 21.1829 33.2938 20.7079 33.2938 20.0739C33.2938 19.4238 33.7091 18.9401 34.3317 18.9401C34.9914 18.9401 35.3591 19.4401 35.3591 20.0157Z" fill="#FFFFFE"/>
<path fill-rule="evenodd" clip-rule="evenodd" d="M26.1925 22.3335C27.8138 22.3335 29.0491 21.5 29.0491 20.0659C29.0491 18.6231 27.8138 17.7896 26.1925 17.7896C24.5709 17.7896 23.3356 18.6231 23.3356 20.0659C23.3356 21.5 24.5709 22.3335 26.1925 22.3335ZM26.1925 21.2829C25.4099 21.2829 25.0893 20.7079 25.0893 20.0659C25.0893 19.4154 25.4099 18.8401 26.1925 18.8401C26.975 18.8401 27.2957 19.4154 27.2957 20.0659C27.2957 20.7079 26.975 21.2829 26.1925 21.2829Z" fill="#D8232A"/>
<path fill-rule="evenodd" clip-rule="evenodd" d="M23.2703 17.8391C23.1005 17.8146 22.8931 17.7896 22.6953 17.7896C21.9599 17.7896 21.5355 18.1397 21.2431 18.6897H21.2244V17.8896H19.6781V22.2332H21.3752V20.3994C21.3752 19.5487 21.8185 19.04 22.6104 19.04C22.8082 19.04 22.9969 19.04 23.1852 19.0898L23.2703 17.8391Z" fill="#D8232A"/>
<path fill-rule="evenodd" clip-rule="evenodd" d="M16.8477 22.2331H18.5447V17.8895H16.8477V22.2331ZM16.8477 17.1807H18.5447V16.0801H16.8477V17.1807Z" fill="#D8232A"/>
<path fill-rule="evenodd" clip-rule="evenodd" d="M15.6766 17.8896H14.1394V18.6731H14.121C13.7626 18.1397 13.1778 17.7896 12.452 17.7896C10.9248 17.7896 10.2364 18.7565 10.2364 20.0489C10.2364 21.3335 11.0755 22.2332 12.4239 22.2332C13.1027 22.2332 13.6683 22.0004 14.0735 21.4911H14.0926V21.7251C14.0926 22.5755 13.5648 22.9839 12.5841 22.9839C11.8769 22.9839 11.4432 22.8507 10.9248 22.6255L10.8397 23.8096C11.2358 23.9342 11.9053 24.0846 12.7161 24.0846C14.6961 24.0846 15.6766 23.5091 15.6766 21.7251V17.8896ZM11.9901 20.0238C11.9901 19.432 12.3201 18.9401 12.9518 18.9401C13.7154 18.9401 14.0361 19.4816 14.0361 19.9654C14.0361 20.6328 13.555 21.0829 12.9518 21.0829C12.4427 21.0829 11.9901 20.699 11.9901 20.0238Z" fill="#D8232A"/>
</svg>

<svg width="58" height="40" fill="none" xmlns="http://www.w3.org/2000/svg"><rect x=".5" y=".5" width="57" height="39" rx="3.5" fill="#fff" stroke="#F3F3F3"/><path fill-rule="evenodd" clip-rule="evenodd" d="M7.831 25.85V14.446c.002-.948.87-1.716 1.943-1.717h20.212v14.838H9.774c-1.073-.002-1.94-.77-1.943-1.717Zm40.626-14.404H9.774c-1.874 0-3.392 1.343-3.393 3V25.85c0 1.657 1.519 2.999 3.393 3h38.683c1.874-.001 3.392-1.343 3.393-3V14.446c0-1.657-1.519-3-3.393-3Z" fill="#0F3365"/><path fill-rule="evenodd" clip-rule="evenodd" d="M29.986 12.729H9.774c-1.073.001-1.94.769-1.943 1.717V25.85c.002.948.87 1.715 1.943 1.717h20.212V12.73m13.629 11.254c.35.067.698.1 1.056.1 1.556 0 1.924-1.059 2.404-2.15l1.802-4.044h-1.698l-1.009 2.834h-.019l-1.056-2.834h-1.828l1.988 4.444c-.121.383-.442.6-.856.6a2.25 2.25 0 0 1-.67-.092l-.114 1.142m-.762-1.751a4.727 4.727 0 0 1-.095-1.025V19.59c0-1.325-1.084-1.8-2.338-1.8-.726 0-1.358.09-1.961.308l.028 1.017c.472-.233 1.018-.325 1.565-.325.613 0 1.113.158 1.123.75a5.549 5.549 0 0 0-.792-.058c-.906 0-2.537.159-2.537 1.484 0 .943.868 1.368 1.839 1.368.698 0 1.17-.242 1.555-.784h.019c0 .225.029.45.038.683h1.556Zm-3.423-1.375c0-.417.453-.575 1.028-.575.255 0 .5.016.717.024 0 .509-.406 1.027-1.047 1.027-.396 0-.698-.176-.698-.476Zm-7.833 3.126h1.697v-2.359h.019c.32.517.962.709 1.556.709 1.461 0 2.243-1.068 2.243-2.352 0-1.05-.744-2.192-2.102-2.192-.773 0-1.49.275-1.829.883h-.019v-.783h-1.565v6.094Zm3.762-3.968c0 .692-.387 1.167-1.027 1.167-.566 0-1.038-.475-1.038-1.11 0-.65.415-1.133 1.038-1.133.66 0 1.027.5 1.027 1.076Z" fill="#FFFFFE"/><path fill-rule="evenodd" clip-rule="evenodd" d="M26.192 22.334c1.622 0 2.857-.834 2.857-2.268 0-1.443-1.235-2.276-2.857-2.276-1.621 0-2.856.833-2.856 2.276 0 1.434 1.235 2.268 2.857 2.268Zm0-1.051c-.782 0-1.103-.575-1.103-1.217 0-.65.32-1.226 1.104-1.226.782 0 1.103.575 1.103 1.226 0 .642-.321 1.217-1.104 1.217ZM23.27 17.84a4.141 4.141 0 0 0-.575-.05c-.735 0-1.16.35-1.452.9h-.019v-.8h-1.546v4.343h1.697V20.4c0-.85.444-1.359 1.235-1.359.198 0 .387 0 .575.05l.085-1.25m-6.422 4.392h1.697V17.89h-1.697v4.343Zm0-5.052h1.697v-1.1h-1.697v1.1Zm-1.171.709h-1.538v.783h-.018a1.967 1.967 0 0 0-1.669-.883c-1.527 0-2.216.966-2.216 2.259 0 1.285.84 2.184 2.188 2.184.679 0 1.244-.233 1.65-.742h.019v.234c0 .85-.528 1.259-1.509 1.259-.707 0-1.14-.133-1.66-.359l-.084 1.185a6.415 6.415 0 0 0 1.876.275c1.98 0 2.96-.576 2.96-2.36V17.89Zm-3.687 2.134c0-.592.33-1.084.962-1.084.763 0 1.084.542 1.084 1.025 0 .668-.481 1.118-1.084 1.118-.51 0-.962-.384-.962-1.06Z" fill="#D8232A"/></svg>
